X:20401
T:Banshee, The
R:Reel
B:Tuneworks Tunebook 2 (https://www.tuneworks.co.uk/)
G:Tuneworks
Z:Jon Warbrick <jon.warbrick@googlemail.com>
M:4/4
L:1/8
K:G
|: "G" G3 D EDB,D | GFGB d2 Bd | "C" eged BAGA | "D" BAGE E2 DE |
"G" G2 GD EDB,D | GFGB d2 Bd | "C" eged BAGA |1 "D" BAGE E2 DE :|2 "D" BAGE E2 D2 ||
|: "C" eaag egge | "Bm" dBBA BABd | "Am" eB B2 gBfg | "D" eBBA B2 Bd |
"C" eaag egge | "Bm" dBBA B2 Bd | "C" eged BAGA | "D" BAGE E2 D2 :|
